X:24
T:THE BEAR DANCE
M:4/4
L:1/4
K:Em
P:A
B E E>A|B E E>F|G G F G|A3 G/2A/2|
B B A A|G G F2 |E G F/2E/2 D|E4 ||
P:B
E G/2G/2 E G|F/2E/2 D D2|E G/2G/2 E G|A3 G/2A/2|
B B A A|G G F2 |E G F/2E/2 D|E4 ||

